pro/src/icons/stroke-less.svg

<svg width="48" height="48" viewBox="0 0 48 48" fill="none" xmlns="http://www.w3.org/2000/svg">
<path id="icon" fill-rule="evenodd" clip-rule="evenodd" d="M24.0002 43.0909C13.4547 43.0909 4.90934 34.5455 4.90934 24C4.90934 20.7523 5.71869 17.6905 7.15333 15.021C7.40289 14.5566 7.22875 13.9778 6.76438 13.7283C6.30001 13.4787 5.72126 13.6529 5.4717 14.1172C3.88998 17.0604 3.00024 20.4322 3.00024 24C3.00024 35.5999 12.4003 45 24.0002 45C35.6002 45 45.0002 35.5999 45.0002 24C45.0002 12.4001 35.6002 3 24.0002 3C20.3811 3 16.9699 3.92015 13.9893 5.54046C13.5262 5.79225 13.3548 6.37183 13.6066 6.835C13.8584 7.29816 14.438 7.46952 14.9011 7.21773C17.6097 5.74531 20.7084 4.90909 24.0002 4.90909C34.5458 4.90909 43.0912 13.4545 43.0912 24C43.0912 34.5455 34.5458 43.0909 24.0002 43.0909ZM16.223 23C15.5475 23 14.9999 23.4477 14.9999 24C14.9999 24.5523 15.5475 25 16.223 25L31.7769 25C32.4524 25 32.9999 24.5523 32.9999 24C32.9999 23.4477 32.4524 23 31.7769 23H16.223Z" fill="currentColor"/>
</svg>

<svg xmlns="http://www.w3.org/2000/svg" width="48" height="48" fill="none"><path id="icon" fill="currentColor" fill-rule="evenodd" d="M24 43.09C13.455 43.09 4.91 34.546 4.91 24c0-3.248.809-6.31 2.243-8.979a.955.955 0 0 0-1.681-.904A20.8 20.8 0 0 0 3 24c0 11.6 9.4 21 21 21s21-9.4 21-21S35.6 3 24 3c-3.619 0-7.03.92-10.01 2.54a.955.955 0 0 0 .911 1.678 19 19 0 0 1 9.1-2.309c10.545 0 19.09 8.546 19.09 19.091s-8.545 19.09-19.09 19.09M16.223 23c-.675 0-1.223.448-1.223 1s.547 1 1.223 1h15.554c.675 0 1.223-.448 1.223-1s-.548-1-1.223-1z" clip-rule="evenodd"/></svg>
